X: 1
T: Etz Chayim, (It Is a) Tree of Life   [Bm]
M: C
L: 1/8
K: Bm
fff |:\
"Bm"B2B2 "D"d2d2 | "Em"e2ef- "F#"ffff |\
"Bm"B2B2 "D"d2d2 | "Em"z2e2 "F#"f4 :| Hz8 |]
|:\
"Bm"z2b2 "A"a4   | "Em"gfef- "F#"ffff |\
"Bm"z2b2 "A"a4   | "Em"gfef- "F#"f4 :| Hz8 |]


